X: 1
T: Reel Bijoux
O: Qu\'ebec
R: reel
Z: 2012 John Chambers <jc:trillian.mit.edu>
S: handout from Debby Knight at RJ practice, 2013-11-13
M: C|
L: 1/8
K: D
ag | "D"fafd Adcd | "Em"Bdef g2gf | "A7"egec Acec | "D"defg "A7"a2ag |
y8 | "D"fafd Adcd | "Em"Bdef g2gf | "A7"e2ce aece | "A7"dfec [1 "D"d2 :|[2 "D"dBAF |]
|: "D"D2FA dAFA | "G"BABc "D"dBAF | "D"D2FA dAFD | "A7"E2CE A,ECE |
|  "D"D2FA dAFA | "G"BABc defg | "D"a2fa "G"gfed | "A7"cABc [1 "D"dBAF :|[2 "D"d2 |]

%%sep 1 1 500

